build/admin/icons/ninja-forms.svg

<svg width="170" height="170" viewBox="0 0 170 170" fill="none" xmlns="http://www.w3.org/2000/svg">
<g clip-path="url(#clip0_347_5)">
<path d="M0 21.25C0 15.6141 2.23883 10.2091 6.22398 6.22398C10.2091 2.23883 15.6141 0 21.25 0L148.75 0C154.386 0 159.791 2.23883 163.776 6.22398C167.761 10.2091 170 15.6141 170 21.25V148.75C170 154.386 167.761 159.791 163.776 163.776C159.791 167.761 154.386 170 148.75 170H21.25C15.6141 170 10.2091 167.761 6.22398 163.776C2.23883 159.791 0 154.386 0 148.75V21.25ZM159.375 21.25C159.375 18.4321 158.256 15.7296 156.263 13.737C154.27 11.7444 151.568 10.625 148.75 10.625H21.25C18.4321 10.625 15.7296 11.7444 13.737 13.737C11.7444 15.7296 10.625 18.4321 10.625 21.25V148.75C10.625 151.568 11.7444 154.27 13.737 156.263C15.7296 158.256 18.4321 159.375 21.25 159.375H148.75C151.568 159.375 154.27 158.256 156.263 156.263C158.256 154.27 159.375 151.568 159.375 148.75V21.25Z" fill="#5E2EFF"/>
<path d="M37 37H133C136.3 37 139 39.7 139 43V127C139 130.3 136.3 133 133 133H37C33.7 133 31 130.3 31 127V43C31 39.7 33.7 37 37 37ZM127 121V67H43V121H127ZM49 73V79H67V73H49ZM73 73V91H121V73H73ZM49 97V103H67V97H49ZM73 97V115H121V97H73Z" fill="#5E2EFF" fill-opacity="0.7"/>
</g>
<defs>
<clipPath id="clip0_347_5">
<rect width="170" height="170" fill="white"/>
</clipPath>
</defs>
</svg>

<svg width="170" height="170" fill="none" viewBox="0 0 170 170" xmlns="http://www.w3.org/2000/svg"><g fill="#5E2EFF" clip-path="url(#prefix__a)"><path d="M0 21.25A21.25 21.25 0 0 1 21.25 0h127.5A21.25 21.25 0 0 1 170 21.25v127.5A21.25 21.25 0 0 1 148.75 170H21.25A21.25 21.25 0 0 1 0 148.75V21.25Zm159.375 0a10.623 10.623 0 0 0-10.625-10.625H21.25A10.625 10.625 0 0 0 10.625 21.25v127.5a10.625 10.625 0 0 0 10.625 10.625h127.5a10.624 10.624 0 0 0 10.625-10.625V21.25Z"/><path fill-opacity=".7" d="M37 37h96c3.3 0 6 2.7 6 6v84c0 3.3-2.7 6-6 6H37c-3.3 0-6-2.7-6-6V43c0-3.3 2.7-6 6-6Zm90 84V67H43v54h84ZM49 73v6h18v-6H49Zm24 0v18h48V73H73ZM49 97v6h18v-6H49Zm24 0v18h48V97H73Z"/></g><defs><clipPath id="prefix__a"><path fill="#fff" d="M0 0h170v170H0z"/></clipPath></defs></svg>
